imgs/google-play.svg

<svg width="99" height="33" fill="none" xmlns="http://www.w3.org/2000/svg"><path fill-rule="evenodd" clip-rule="evenodd" d="M12.432 21.304v.976c0 3.904-2.88 5.952-5.936 5.952-3.872 0-6.496-2.88-6.496-6.448 0-3.648 2.96-6.464 6.528-6.464 3.12 0 5.104 1.824 5.632 3.824l-2.528.768c-.272-1.072-1.44-2.128-3.136-2.128-2.112 0-3.856 1.712-3.856 3.984 0 2.176 1.584 4 3.856 4 1.696 0 2.928-.88 3.232-2.112H5.92v-2.352h6.512zm1.216 2.48c0-2.544 2.096-4.48 4.688-4.48 2.576 0 4.64 1.888 4.64 4.432 0 2.576-2.096 4.496-4.672 4.496-2.592 0-4.656-1.872-4.656-4.448zm2.56-.032c0 1.296.944 2.192 2.112 2.192 1.168 0 2.096-.896 2.096-2.192 0-1.28-.944-2.176-2.112-2.176-1.168 0-2.096.896-2.096 2.176zm8.016.032c0-2.544 2.096-4.48 4.688-4.48 2.576 0 4.64 1.888 4.64 4.432 0 2.576-2.096 4.496-4.672 4.496-2.592 0-4.656-1.872-4.656-4.448zm2.56-.032c0 1.296.944 2.192 2.112 2.192 1.168 0 2.096-.896 2.096-2.192 0-1.28-.944-2.176-2.112-2.176-1.168 0-2.096.896-2.096 2.176zm17.136-4.256v8.416c0 2.944-1.984 4.4-4.608 4.4-2.736 0-4.176-1.504-4.496-3.072l2.288-.704c.224.8.736 1.6 2.192 1.6 1.152 0 2.144-.624 2.144-2.16v-1.072h-.032c-.768.992-1.856 1.136-2.464 1.136-2.464 0-4.128-1.92-4.128-4.32 0-2.16 1.568-4.352 4.032-4.352.528 0 1.712.112 2.592 1.168h.032v-1.04h2.448zm-2.416 4.224c0-1.264-.912-2.128-2.08-2.128-1.152 0-2.08.88-2.08 2.128 0 1.28.912 2.144 2.08 2.144 1.152 0 2.08-.864 2.08-2.144zM46.24 15h2.512v13.04H46.24V15zm6.896 7.808h3.68c-.048-.624-.576-1.488-1.824-1.488-1.12 0-1.76.928-1.856 1.488zm6.144 1.648h-6.208c.16 1.072 1.072 1.68 2.112 1.68.72 0 1.52-.432 1.808-1.136l2.048.704c-.56 1.648-2.144 2.528-3.824 2.528-2.592 0-4.688-1.824-4.688-4.48 0-2.464 2.064-4.464 4.528-4.464 2.544 0 4.256 1.744 4.256 4.272 0 .304 0 .608-.032.896zm15.264-4.928c0 2.768-1.952 4.096-4.576 4.096H68v4.416h-2.592V15.512h4.656c2.512 0 4.48 1.36 4.48 4.016zm-2.608.064c0-1.216-1.024-1.632-2.096-1.632H68v3.248h1.856c1.024 0 2.08-.448 2.08-1.616zM76.176 15h2.512v13.04h-2.512V15zm7.168 13.2c-1.488 0-2.832-.96-2.832-2.544v-.064c0-2.048 2.096-2.624 3.76-2.624h.832c.464 0 .672-.24.672-.592 0-.544-.448-1.056-1.344-1.056-.768 0-1.344.448-1.536 1.168l-2.192-.496c.288-1.824 2.048-2.688 3.84-2.688 2.128 0 3.68 1.136 3.68 3.44v5.296H85.92v-1.056l-.032-.016c-.64.912-1.616 1.232-2.544 1.232zm.72-1.824c1.104 0 1.696-.784 1.696-1.648v-.192h-1.488c-.512 0-1.248.304-1.248.976 0 .608.512.864 1.04.864zm6.608 5.872l2.096-5.12-3.6-7.632h2.752l2.128 4.88 1.904-4.88h2.576l-5.184 12.752h-2.672zM6.26 2.75c-.17-.67-.9-1.61-2.28-1.61-1.53 0-2.7 1.23-2.7 2.87 0 1.62 1.11 2.89 2.69 2.89 1.38 0 2.16-.8 2.33-1.76H3.49V4.02h4.14v.43c0 1.98-1.38 3.58-3.65 3.58C1.62 8.03 0 6.32 0 4.04 0 1.7 1.72 0 3.99 0c1.89 0 3.12 1.13 3.48 2.37l-1.21.38zm7.8-2.64v1.11h-3.78V3.4h3.44v1.11h-3.44v2.31h3.82v1.12H9.05V.11h5.01zm3.3 1.14h-2.48V.11h6.2v1.14h-2.49v6.69h-1.23V1.25zm8.43 6.69h-1.23V.11h1.23v7.83zm3.67-6.69h-2.48V.11h6.2v1.14h-2.49v6.69h-1.23V1.25zm6.68 2.79c0-2.28 1.81-4.04 4.03-4.04s4.01 1.72 4.01 4.01c0 2.31-1.83 4.02-4.04 4.02-2.22 0-4-1.68-4-3.99zm1.29-.03c0 1.59 1.19 2.88 2.73 2.88 1.53 0 2.73-1.29 2.73-2.88 0-1.59-1.2-2.87-2.73-2.87-1.54 0-2.73 1.28-2.73 2.87zm14.76 3.93h-1.28l-4.04-6.03v6.03h-1.21V.11h1.45l3.86 5.77V.11h1.22v7.83z" fill="#fff"/></svg>

<svg width="99" height="33" viewBox="0 0 99 33" fill="none" xmlns="http://www.w3.org/2000/svg">
<path fill-rule="evenodd" clip-rule="evenodd" d="M12.432 21.304V22.28C12.432 26.184 9.552 28.232 6.496 28.232C2.624 28.232 0 25.352 0 21.784C0 18.136 2.96 15.32 6.528 15.32C9.648 15.32 11.632 17.144 12.16 19.144L9.632 19.912C9.36 18.84 8.192 17.784 6.496 17.784C4.384 17.784 2.64 19.496 2.64 21.768C2.64 23.944 4.224 25.768 6.496 25.768C8.192 25.768 9.424 24.888 9.728 23.656H5.92V21.304H12.432ZM13.648 23.784C13.648 21.24 15.744 19.304 18.336 19.304C20.912 19.304 22.976 21.192 22.976 23.736C22.976 26.312 20.88 28.232 18.304 28.232C15.712 28.232 13.648 26.36 13.648 23.784ZM16.208 23.752C16.208 25.048 17.152 25.944 18.32 25.944C19.488 25.944 20.416 25.048 20.416 23.752C20.416 22.472 19.472 21.576 18.304 21.576C17.136 21.576 16.208 22.472 16.208 23.752ZM24.224 23.784C24.224 21.24 26.32 19.304 28.912 19.304C31.488 19.304 33.552 21.192 33.552 23.736C33.552 26.312 31.456 28.232 28.88 28.232C26.288 28.232 24.224 26.36 24.224 23.784ZM26.784 23.752C26.784 25.048 27.728 25.944 28.896 25.944C30.064 25.944 30.992 25.048 30.992 23.752C30.992 22.472 30.048 21.576 28.88 21.576C27.712 21.576 26.784 22.472 26.784 23.752ZM43.92 19.496V27.912C43.92 30.856 41.936 32.312 39.312 32.312C36.576 32.312 35.136 30.808 34.816 29.24L37.104 28.536C37.328 29.336 37.84 30.136 39.296 30.136C40.448 30.136 41.44 29.512 41.44 27.976V26.904H41.408C40.64 27.896 39.552 28.04 38.944 28.04C36.48 28.04 34.816 26.12 34.816 23.72C34.816 21.56 36.384 19.368 38.848 19.368C39.376 19.368 40.56 19.48 41.44 20.536H41.472V19.496H43.92ZM41.504 23.72C41.504 22.456 40.592 21.592 39.424 21.592C38.272 21.592 37.344 22.472 37.344 23.72C37.344 25 38.256 25.864 39.424 25.864C40.576 25.864 41.504 25 41.504 23.72ZM46.24 15H48.752V28.04H46.24V15ZM53.136 22.808H56.816C56.768 22.184 56.24 21.32 54.992 21.32C53.872 21.32 53.232 22.248 53.136 22.808ZM59.28 24.456H53.072C53.232 25.528 54.144 26.136 55.184 26.136C55.904 26.136 56.704 25.704 56.992 25L59.04 25.704C58.48 27.352 56.896 28.232 55.216 28.232C52.624 28.232 50.528 26.408 50.528 23.752C50.528 21.288 52.592 19.288 55.056 19.288C57.6 19.288 59.312 21.032 59.312 23.56C59.312 23.864 59.312 24.168 59.28 24.456ZM74.544 19.528C74.544 22.296 72.592 23.624 69.968 23.624H68V28.04H65.408V15.512H70.064C72.576 15.512 74.544 16.872 74.544 19.528ZM71.936 19.592C71.936 18.376 70.912 17.96 69.84 17.96H68V21.208H69.856C70.88 21.208 71.936 20.76 71.936 19.592ZM76.176 15H78.688V28.04H76.176V15ZM83.344 28.2C81.856 28.2 80.512 27.24 80.512 25.656V25.592C80.512 23.544 82.608 22.968 84.272 22.968H85.104C85.568 22.968 85.776 22.728 85.776 22.376C85.776 21.832 85.328 21.32 84.432 21.32C83.664 21.32 83.088 21.768 82.896 22.488L80.704 21.992C80.992 20.168 82.752 19.304 84.544 19.304C86.672 19.304 88.224 20.44 88.224 22.744V28.04H85.92V26.984L85.888 26.968C85.248 27.88 84.272 28.2 83.344 28.2ZM84.064 26.376C85.168 26.376 85.76 25.592 85.76 24.728V24.536H84.272C83.76 24.536 83.024 24.84 83.024 25.512C83.024 26.12 83.536 26.376 84.064 26.376ZM90.672 32.248L92.768 27.128L89.168 19.496H91.92L94.048 24.376L95.952 19.496H98.528L93.344 32.248H90.672ZM6.26 2.75C6.09 2.08 5.36 1.14 3.98 1.14C2.45 1.14 1.28 2.37 1.28 4.01C1.28 5.63 2.39 6.9 3.97 6.9C5.35 6.9 6.13 6.1 6.3 5.14H3.49V4.02H7.63V4.45C7.63 6.43 6.25 8.03 3.98 8.03C1.62 8.03 0 6.32 0 4.04C0 1.7 1.72 0 3.99 0C5.88 0 7.11 1.13 7.47 2.37L6.26 2.75ZM14.06 0.11V1.22H10.28V3.4H13.72V4.51H10.28V6.82H14.1V7.94H9.05V0.11H14.06ZM17.36 1.25H14.88V0.11H21.08V1.25H18.59V7.94H17.36V1.25ZM25.79 7.94H24.56V0.11H25.79V7.94ZM29.46 1.25H26.98V0.11H33.18V1.25H30.69V7.94H29.46V1.25ZM36.14 4.04C36.14 1.76 37.95 0 40.17 0C42.39 0 44.18 1.72 44.18 4.01C44.18 6.32 42.35 8.03 40.14 8.03C37.92 8.03 36.14 6.35 36.14 4.04ZM37.43 4.01C37.43 5.6 38.62 6.89 40.16 6.89C41.69 6.89 42.89 5.6 42.89 4.01C42.89 2.42 41.69 1.14 40.16 1.14C38.62 1.14 37.43 2.42 37.43 4.01ZM52.19 7.94H50.91L46.87 1.91V7.94H45.66V0.11H47.11L50.97 5.88V0.11H52.19V7.94Z" fill="white"/>
</svg>
